X:675
%%etbk:tnset id:419,pos:3,rep:3x,ant:
%%etbk:wsite https://thesession.org/tunes/1498
%%etbk:color #ffccbf
%%etbk:pldat 2016-09-09T19:16,2016-08-06T12:57,2016-04-02T15:23,2016-03-30T17:46,2015-12-15T16:44,2015-12-13T14:15,2015-06-05T16:45,2015-04-26T20:48,2015-04-08T16:38,2015-04-07T18:27,2015-04-06T11:54,2015-04-03T14:28
T: The Aughacashel
Z: Piano Box Version by Martin Fleischmann
H: Created 2015-03-30 /  Last Modified 2016-03-30
R: reel
M: 4/4
L: 1/8
K: Gmaj
E|:"G"!1!DEGA !5!BG GG|!4!AGBG AG!2!E!3!G|!1!DEG!4!A !1!B!2!d!3!ed|"D"!5!g!3!ed!1!B !2!A!3!B!1!G!2!E|
"G"DEG!4!A !3!BG~G2|AGBG AG!2!G!1!G|!2!Bd!4!ed !2!B!3!d!5!ge| "D"!3!d!2!B!1!A!2!B "G"!1!G3z:|
f|:"G"!5!g!2!B !1!B!2!B !1!Gz!2!B!3!d | !4!e!5!gd!2!B !1!GGG !4!B | "am"!3!A2 GB A!1!E ~E2 |!4!cA!3!BG !2!A!3!B!1!d!2!e|
"G"!3!g2!3!ga bgaf|!4!ge!1!d!3!B !2!AB!1!G!2!E|!1!DEG!4!A !1!Bd!5!ge|"D"!2!d!1!B!2!A!3!B "G"!1!G3z:||


